pk/inbox-success.svg

<svg viewBox="0 0 48 48" fill="none" xmlns="http://www.w3.org/2000/svg" height="1em" width="1em">
  <path d="M4 30L9 6H39L44 30" stroke="black" stroke-width="4" stroke-linecap="round" stroke-linejoin="round"/>
  <path d="M4 30H14.9091L16.7273 36H31.2727L33.0909 30H44V43H4V30Z" fill="#2F88FF" stroke="black" stroke-width="4" stroke-linejoin="round"/>
  <path d="M19 19.2143L23 24L31 16" stroke="black" stroke-width="4" stroke-linecap="round" stroke-linejoin="round"/>
</svg>

<svg viewBox="0 0 48 48" fill="none" xmlns="http://www.w3.org/2000/svg" height="1em" width="1em">
  <path d="M4 30 9 6h30l5 24" stroke="#000" stroke-width="4" stroke-linecap="round" stroke-linejoin="round"/>
  <path d="M4 30h10.91l1.817 6h14.546l1.818-6H44v13H4V30Z" fill="#2F88FF" stroke="#000" stroke-width="4" stroke-linejoin="round"/>
  <path d="M19 19.214 23 24l8-8" stroke="#000" stroke-width="4" stroke-linecap="round" stroke-linejoin="round"/>
</svg>
